X:1
T:Octavius, LM
T:Joseph Emerson Sweetser (1817-1873)
T:Octavius, LM
T:Public Domain
C:Joseph Emerson Sweetser (1817-1873)
Z:Public Domain
%%score ( 1 2 ) ( 3 4 )
L:1/8
M:2/4
K:Bb
V:1 treble 
V:2 treble 
V:3 bass 
V:4 bass 
V:1
 F | B2 (FD) | B,3 F | [Fd]2 (cB) | (B2 A)F | ([ce][Bd]) ([Ac][GB]) | ([FA][GB]) ([Ac][Fd]) | %7
 [Fc]2 [C=E]2 | [CF]3 [EF] | ([DF][CE]) ([B,D][DF]) | (DE F)[DF] | ([EG][FA]) (Bc) | [FA]3 [EA] | %13
 ([DB][EA]) (Bc) | ([Fd][Ee]) (Gc) | [FB]2 [EA]2 | [DB]3 |] %17
V:2
 F | B2 x2 | B,3 F | x2 F2 | F3 F | x4 | x4 | x4 | x4 | x4 | B3 x | x2 G2 | x4 | x2 F2 | x2 G2 | %15
 x4 | x3 |] %17
V:3
 F, | B,2 (F,D,) | B,,3 F, | B,2 ([A,E][B,D]) | (D2 C)F, | (A,B,) (CD) | (ED) ([F,C][B,,B,]) | %7
 [C,A,]2 [C,B,]2 | [F,A,]3 [F,A,] | [B,,B,]2 [B,,F,]2 | (B,,C, D,)[B,,B,] | [E,B,]2 (B,E) | %12
 (F,E, D,)[C,F,] | (B,,C,) ([D,F,][F,A,]) | (B,G,) ([E,B,][C,E]) | [F,D]2 [F,C]2 | [B,,B,]3 |] %17
V:4
 F, | B,2 x2 | B,,3 F, | B,2 x2 | F,3 F, | F,2 F,2 | F,2 x2 | x4 | x4 | x4 | F,3 x | x2 E,2 | %12
 C3 x | F,2 x2 | B,2 x2 | x4 | x3 |] %17

